src/apps_kdeconnect.svg

<svg width="48" height="48" version="1" xmlns="http://www.w3.org/2000/svg">
 <rect transform="matrix(0,-1,-1,0,0,0)" x="-45" y="-40" width="40" height="32" rx="2" ry="2" style="opacity:.2"/>
 <rect transform="matrix(0,-1,-1,0,0,0)" x="-44" y="-40" width="40" height="32" rx="2" ry="2" style="fill:#8e8e8e"/>
 <rect x="19" y="5" width="10" height="2" rx="1" ry="1" style="opacity:.5"/>
 <rect x="11" y="8" width="26" height="30" rx="2" ry="2" style="opacity:.5"/>
 <circle cx="24" cy="41" r="2" style="opacity:.5"/>
 <path d="m10 4c-1.108 0-2 0.892-2 2v1c0-1.108 0.892-2 2-2h28c1.108 0 2 0.892 2 2v-1c0-1.108-0.892-2-2-2h-28z" style="fill:#ffffff;opacity:.2"/>
 <path d="m25.999998 14.000006-4 0.605469v14.46875l4-1.074219v-5.589844l4 6.589844 4-1.5-5-6 5.001953-6.498047-3.880859-1.001953-4.121094 6.558594v-6.558594zm-8.144531 3.923828c-0.09459 0-0.189185 0.03684-0.261719 0.109375l-1.572266 1.572266c-0.145067 0.145067-0.110143 0.352307 0 0.52539l1.626953 2.554688c-0.120543 0.250221-0.224923 0.50791-0.3125 0.771484-0.0038 0.01134-0.0099 0.02184-0.01367 0.0332l-2.951171 0.65625c-0.20027 0.04451-0.371094 0.165942-0.371094 0.371097v0.982422 0.982422c0 0.205155 0.170824 0.32659 0.371094 0.371094l2.951171 0.65625c0.0065 0.0194 0.01679 0.03731 0.02344 0.05664 0.08524 0.256042 0.186352 0.506527 0.302735 0.75l-1.626953 2.552735c-0.110144 0.173083-0.145067 0.380323 0 0.525391l1.572265 1.572265c0.145068 0.145068 0.378368 0.145068 0.523438 0l2.550781-1.625c0.250759 0.121949 0.509106 0.227636 0.773437 0.316406 0.01735 0.0061 0.03339 0.01554 0.05078 0.02148l0.654296 2.949217c0 0.205157 0.16594 0.371094 0.371094 0.371094h2.220703c0.205155 0 0.32659-0.170824 0.371094-0.371094l0.654297-3.039062c0.300604-0.113013 0.592418-0.248149 0.873047-0.404297l2.490234 1.78125c0.145068 0.145068 0.378371 0.145068 0.523438 0l1.572265-1.572266c0.145068-0.145067 0.110144-0.352307 0-0.52539l-0.947265-1.4375-0.09961 0.03711c-0.225251 0.08461-0.478825-0.0032-0.603515-0.208984l-0.996092-1.640621c-0.829936 1.985195-2.789933 3.380859-5.076172 3.380859-3.037566 0-5.5-2.462434-5.5-5.5 0-2.33092 1.452799-4.31835 3.5-5.119141v-1.095703l-0.0078 0.03516c-0.02208 0.0075-0.04245 0.01957-0.06445 0.02734-0.260825 0.08662-0.515895 0.189688-0.763672 0.308594l-2.54689-1.623047c-0.07254-0.07253-0.167127-0.109375-0.261719-0.109375z" style="opacity:.2"/>
 <path d="m25.999998 13.000006-4 0.605469v14.46875l4-1.074219v-5.589844l4 6.589844 4-1.5-5-6 5.001953-6.498047-3.880859-1.001953-4.121094 6.558594v-6.558594zm-8.144531 3.923828c-0.09459 0-0.189185 0.03684-0.261719 0.109375l-1.572266 1.572266c-0.145067 0.145067-0.110143 0.352307 0 0.52539l1.626953 2.554688c-0.120543 0.250221-0.224923 0.50791-0.3125 0.771484-0.0038 0.01134-0.0099 0.02184-0.01367 0.0332l-2.951171 0.65625c-0.20027 0.04451-0.371094 0.165942-0.371094 0.371097v0.982422 0.982422c0 0.205155 0.170824 0.32659 0.371094 0.371094l2.951171 0.65625c0.0065 0.0194 0.01679 0.03731 0.02344 0.05664 0.08524 0.256042 0.186352 0.506527 0.302735 0.75l-1.626953 2.552735c-0.110144 0.173083-0.145067 0.380323 0 0.525391l1.572265 1.572265c0.145068 0.145068 0.378368 0.145068 0.523438 0l2.550781-1.625c0.250759 0.121949 0.509106 0.227636 0.773437 0.316406 0.01735 0.0061 0.03339 0.01554 0.05078 0.02148l0.654296 2.949217c0 0.205157 0.16594 0.371094 0.371094 0.371094h2.220703c0.205155 0 0.32659-0.170824 0.371094-0.371094l0.654297-3.039062c0.300604-0.113013 0.592418-0.248149 0.873047-0.404297l2.490234 1.78125c0.145068 0.145068 0.378371 0.145068 0.523438 0l1.572265-1.572266c0.145068-0.145067 0.110144-0.352307 0-0.52539l-0.947265-1.4375-0.09961 0.03711c-0.225251 0.08461-0.478825-0.0032-0.603515-0.208984l-0.996092-1.640621c-0.829936 1.985195-2.789933 3.380859-5.076172 3.380859-3.037566 0-5.5-2.462434-5.5-5.5 0-2.33092 1.452799-4.31835 3.5-5.119141v-1.095703l-0.0078 0.03516c-0.02208 0.0075-0.04245 0.01957-0.06445 0.02734-0.260825 0.08662-0.515895 0.189688-0.763672 0.308594l-2.54689-1.623047c-0.07254-0.07253-0.167127-0.109375-0.261719-0.109375z" style="fill:#ffffff"/>
</svg>

<svg xmlns="http://www.w3.org/2000/svg" width="48" height="48" version="1">
 <rect style="opacity:0.2" width="26" height="40" x="11" y="5" rx="2" ry="2"/>
 <path style="fill:#e4e4e4" d="M 13 4 C 11.892 4 11 4.892 11 6 L 11 8 L 37 8 L 37 6 C 37 4.892 36.108 4 35 4 L 13 4 z M 11 38 L 11 42 C 11 43.108 11.892 44 13 44 L 35 44 C 36.108 44 37 43.108 37 42 L 37 38 L 11 38 z"/>
 <rect style="fill:#333333" width="6" height="1" x="21" y="6" rx=".5" ry=".5"/>
 <rect style="fill:#3f3f3f" width="26" height="30" x="11" y="8"/>
 <path style="fill:#ffffff;opacity:0.2" d="M 13 4 C 11.892 4 11 4.892 11 6 L 11 7 C 11 5.892 11.892 5 13 5 L 35 5 C 36.108 5 37 5.892 37 7 L 37 6 C 37 4.892 36.108 4 35 4 L 13 4 z"/>
 <rect style="fill:#4d4d4d" width="4" height="4" x="22" y="39" rx="1" ry="1"/>
 <rect style="fill:#4d4d4d" width="4" height="2" x="29" y="40" rx="1" ry="1"/>
 <rect style="fill:#4d4d4d" width="4" height="2" x="15" y="40" rx="1" ry="1"/>
 <circle style="fill:#333333" cx="28.5" cy="6.5" r=".5"/>
 <path style="opacity:0.2" d="M 26,14 22,14.605 V 29.074 L 26,28 V 22.41 L 30,29 34,27.5 29,21.5 34.002,15.002 30.121,14 26,20.559 Z M 17.855,17.924 C 17.761,17.924 17.666,17.961 17.594,18.033 L 16.021,19.605 C 15.876,19.751 15.911,19.958 16.021,20.131 L 17.648,22.686 C 17.528,22.936 17.424,23.193 17.336,23.457 17.332,23.468 17.326,23.479 17.322,23.49 L 14.371,24.146 C 14.171,24.191 14,24.312 14,24.518 V 25.5 26.482 C 14,26.688 14.171,26.809 14.371,26.854 L 17.322,27.51 C 17.329,27.529 17.339,27.547 17.346,27.566 17.431,27.822 17.532,28.073 17.648,28.316 L 16.021,30.869 C 15.911,31.042 15.876,31.249 16.021,31.395 L 17.594,32.967 C 17.739,33.112 17.972,33.112 18.117,32.967 L 20.668,31.342 C 20.919,31.464 21.177,31.569 21.441,31.658 21.459,31.664 21.475,31.674 21.492,31.68 L 22.146,34.629 C 22.146,34.834 22.312,35 22.518,35 H 24.738 C 24.943,35 25.065,34.829 25.109,34.629 L 25.764,31.59 C 26.064,31.477 26.356,31.342 26.637,31.186 L 29.127,32.967 C 29.272,33.112 29.505,33.112 29.65,32.967 L 31.223,31.395 C 31.368,31.249 31.333,31.042 31.223,30.869 L 30.275,29.432 30.176,29.469 C 29.951,29.553 29.697,29.466 29.572,29.26 L 28.576,27.619 C 27.746,29.604 25.786,31 23.5,31 20.462,31 18,28.538 18,25.5 18,23.169 19.453,21.182 21.5,20.381 V 19.285 L 21.492,19.32 C 21.47,19.328 21.45,19.34 21.428,19.348 21.167,19.434 20.912,19.537 20.664,19.656 L 18.117,18.033 C 18.045,17.961 17.95,17.924 17.855,17.924 Z"/>
 <path style="fill:#ffffff" d="M 26,13 22,13.605 V 28.074 L 26,27 V 21.41 L 30,28 34,26.5 29,20.5 34.002,14.002 30.121,13 26,19.559 Z M 17.855,16.924 C 17.761,16.924 17.666,16.961 17.594,17.033 L 16.021,18.605 C 15.876,18.751 15.911,18.958 16.021,19.131 L 17.648,21.686 C 17.528,21.936 17.424,22.193 17.336,22.457 17.332,22.468 17.326,22.479 17.322,22.49 L 14.371,23.146 C 14.171,23.191 14,23.312 14,23.518 V 24.5 25.482 C 14,25.688 14.171,25.809 14.371,25.854 L 17.322,26.51 C 17.329,26.529 17.339,26.547 17.346,26.566 17.431,26.822 17.532,27.073 17.648,27.316 L 16.021,29.869 C 15.911,30.042 15.876,30.249 16.021,30.395 L 17.594,31.967 C 17.739,32.112 17.972,32.112 18.117,31.967 L 20.668,30.342 C 20.919,30.464 21.177,30.569 21.441,30.658 21.459,30.664 21.475,30.674 21.492,30.68 L 22.146,33.629 C 22.146,33.834 22.312,34 22.518,34 H 24.738 C 24.943,34 25.065,33.829 25.109,33.629 L 25.764,30.59 C 26.064,30.477 26.356,30.342 26.637,30.186 L 29.127,31.967 C 29.272,32.112 29.505,32.112 29.65,31.967 L 31.223,30.395 C 31.368,30.249 31.333,30.042 31.223,29.869 L 30.275,28.432 30.176,28.469 C 29.951,28.553 29.697,28.466 29.572,28.26 L 28.576,26.619 C 27.746,28.604 25.786,30 23.5,30 20.462,30 18,27.538 18,24.5 18,22.169 19.453,20.182 21.5,19.381 V 18.285 L 21.492,18.32 C 21.47,18.328 21.45,18.34 21.428,18.348 21.167,18.434 20.912,18.537 20.664,18.656 L 18.117,17.033 C 18.045,16.961 17.95,16.924 17.855,16.924 Z"/>
 <rect style="opacity:0.2" width="26" height="1" x="11" y="8"/>
 <rect style="opacity:0.2;fill:#ffffff" width="26" height="1" x="11" y="38"/>
</svg>
